src/Eleven-Dark/16/symbolic/actions/help-about-symbolic.svg

<?xml version="1.0" encoding="UTF-8" standalone="no"?>
<svg
   width="16"
   height="16"
   version="1.1"
   id="svg1"
   sodipodi:docname="help-about-symbolic.svg"
   inkscape:version="1.4.2 (ebf0e940d0, 2025-05-08)"
   xmlns:inkscape="http://www.inkscape.org/namespaces/inkscape"
   xmlns:sodipodi="http://sodipodi.sourceforge.net/DTD/sodipodi-0.dtd"
   xmlns="http://www.w3.org/2000/svg"
   xmlns:svg="http://www.w3.org/2000/svg">
  <defs
     id="defs1">
     <style
        id="current-color-scheme"
        type="text/css">
        .ColorScheme-Text { color:#dedede; } .ColorScheme-Highlight { color:#4285f4; } .ColorScheme-NeutralText { color:#ff9800; } .ColorScheme-PositiveText { color:#4caf50; } .ColorScheme-NegativeText { color:#f44336; }
     </style>
  </defs>
  <sodipodi:namedview
     id="namedview1"
     pagecolor="#ffffff"
     bordercolor="#000000"
     borderopacity="0.25"
     inkscape:showpageshadow="2"
     inkscape:pageopacity="0.0"
     inkscape:pagecheckerboard="0"
     inkscape:deskcolor="#d1d1d1"
     inkscape:zoom="49.8125"
     inkscape:cx="8"
     inkscape:cy="8"
     inkscape:window-width="1920"
     inkscape:window-height="1012"
     inkscape:window-x="0"
     inkscape:window-y="0"
     inkscape:window-maximized="1"
     inkscape:current-layer="svg1" />
  <path
     id="path1"
     style="fill:currentColor;fill-opacity:1"
     class="ColorScheme-Text"
     d="M 8 1 C 7.44242 1 7.1732231 1.2985406 7.0019531 1.4941406 C 6.8306931 1.6897406 6.7188719 1.8823338 6.6074219 2.0898438 C 6.3845119 2.5048738 6.1877669 2.98424 5.9980469 3.46875 C 5.8083269 3.95326 5.6290456 4.4397369 5.4785156 4.8105469 C 5.4032516 4.9959569 5.3347663 5.1520631 5.2851562 5.2519531 C 5.2845284 5.2532172 5.2818346 5.2568179 5.28125 5.2578125 C 5.2779226 5.262598 5.2754015 5.2646691 5.2714844 5.2714844 C 5.2646687 5.2754015 5.2606446 5.2798756 5.2558594 5.2832031 C 5.2548648 5.2837877 5.2532172 5.2845284 5.2519531 5.2851562 C 5.1520691 5.3347632 4.9959569 5.4032556 4.8105469 5.4785156 C 4.4397369 5.6290456 3.95327 5.8083269 3.46875 5.9980469 C 2.98423 6.1877669 2.5048737 6.3845119 2.0898438 6.6074219 C 1.8823238 6.7188719 1.6897306 6.8306931 1.4941406 7.0019531 C 1.2985406 7.1732131 1 7.44241 1 8 C 1 8.55759 1.2985406 8.8267769 1.4941406 8.9980469 C 1.6897406 9.1693069 1.8823337 9.2811281 2.0898438 9.3925781 C 2.5048737 9.6154881 2.98424 9.8122431 3.46875 10.001953 C 3.95327 10.191673 4.4397369 10.370954 4.8105469 10.521484 C 4.9959569 10.596744 5.1520631 10.665234 5.2519531 10.714844 C 5.2627681 10.720215 5.2638065 10.722933 5.2734375 10.728516 C 5.2783643 10.737149 5.2804183 10.738508 5.2851562 10.748047 C 5.3347663 10.847937 5.4032556 11.004043 5.4785156 11.189453 C 5.6290456 11.560263 5.8083269 12.04673 5.9980469 12.53125 C 6.1877669 13.01577 6.3845119 13.495136 6.6074219 13.910156 C 6.7188719 14.117676 6.8306931 14.310269 7.0019531 14.505859 C 7.1732131 14.701499 7.44241 15 8 15 C 8.55759 15 8.8267769 14.701459 8.9980469 14.505859 C 9.1693069 14.310259 9.2811281 14.117666 9.3925781 13.910156 C 9.6154881 13.495126 9.8122431 13.01576 10.001953 12.53125 C 10.191673 12.04673 10.370954 11.560263 10.521484 11.189453 C 10.596744 11.004053 10.665234 10.847937 10.714844 10.748047 C 10.720215 10.737231 10.722933 10.736194 10.728516 10.726562 C 10.737149 10.72164 10.738508 10.719576 10.748047 10.714844 C 10.847937 10.665234 11.004043 10.596744 11.189453 10.521484 C 11.560303 10.370914 12.04673 10.191673 12.53125 10.001953 C 13.01577 9.8122331 13.495136 9.6154781 13.910156 9.3925781 C 14.117676 9.2811281 14.310269 9.1693069 14.505859 8.9980469 C 14.701459 8.8267869 15 8.55759 15 8 C 15 7.44241 14.701459 7.1732231 14.505859 7.0019531 C 14.310259 6.8306931 14.117666 6.7188719 13.910156 6.6074219 C 13.495126 6.3845119 13.01576 6.1877669 12.53125 5.9980469 C 12.04674 5.8083269 11.560263 5.6290456 11.189453 5.4785156 C 11.004053 5.4032516 10.847937 5.3347663 10.748047 5.2851562 C 10.746783 5.2845284 10.743182 5.2818346 10.742188 5.28125 C 10.737402 5.2779226 10.735331 5.2754015 10.728516 5.2714844 C 10.724601 5.2646687 10.720124 5.2606446 10.716797 5.2558594 C 10.716213 5.2548648 10.715471 5.2532172 10.714844 5.2519531 C 10.665191 5.1520691 10.596744 4.9959569 10.521484 4.8105469 C 10.370954 4.4397369 10.191673 3.95327 10.001953 3.46875 C 9.8122331 2.98423 9.6154781 2.5048737 9.3925781 2.0898438 C 9.2811281 1.8823238 9.1693069 1.6897306 8.9980469 1.4941406 C 8.8267869 1.2985406 8.55759 1 8 1 z M 7.9863281 2 C 7.9911904 1.9995689 7.9951781 2 8 2 C 8.61714 2 9.5686594 5.5579406 10.005859 5.9941406 C 10.442149 6.4312806 14 7.3828 14 8 C 14 8.6172 10.442059 9.5686594 10.005859 10.005859 C 9.5687194 10.442149 8.6172 14 8 14 C 7.3828 14 6.4313406 10.442059 5.9941406 10.005859 C 5.5578506 9.5687194 2 8.6172 2 8 C 2 7.3828 5.5579406 6.4313406 5.9941406 5.9941406 C 6.4278655 5.5612591 7.3688178 2.054752 7.9863281 2 z " />
</svg>

<svg width="16" height="16" version="1.1" xmlns="http://www.w3.org/2000/svg">
 <path d="m8 1c-0.55758 0-0.82678 0.29854-0.99805 0.49414-0.17126 0.1956-0.28308 0.38819-0.39453 0.5957-0.22291 0.41503-0.41966 0.89439-0.60938 1.3789s-0.369 0.97099-0.51953 1.3418c-0.075264 0.18541-0.14375 0.34152-0.19336 0.44141-0.0050225 0.010113-0.0084492 0.010444-0.013672 0.019531-0.0090876 0.0052229-0.0094186 0.008649-0.019531 0.013672-0.099884 0.049607-0.256 0.1181-0.44141 0.19336-0.37081 0.15053-0.85728 0.32981-1.3418 0.51953s-0.96387 0.38647-1.3789 0.60938c-0.20752 0.11145-0.40011 0.22327-0.5957 0.39453-0.1956 0.17126-0.49414 0.44046-0.49414 0.99805s0.29854 0.82678 0.49414 0.99805c0.1956 0.17126 0.38819 0.28308 0.5957 0.39453 0.41503 0.22291 0.89439 0.41966 1.3789 0.60937 0.48452 0.18972 0.97099 0.369 1.3418 0.51953 0.18541 0.07526 0.34152 0.14375 0.44141 0.19336 0.010815 0.005371 0.011853 0.008089 0.021484 0.013672 0.0049268 0.008633 0.006981 0.009992 0.011719 0.019531 0.04961 0.09989 0.1181 0.256 0.19336 0.44141 0.15053 0.37081 0.32981 0.85728 0.51953 1.3418s0.38647 0.96388 0.60938 1.3789c0.11145 0.20752 0.22327 0.40011 0.39453 0.5957 0.17126 0.19564 0.44046 0.49414 0.99805 0.49414s0.82678-0.29854 0.99805-0.49414c0.17126-0.1956 0.28308-0.38819 0.39453-0.5957 0.22291-0.41503 0.41966-0.89439 0.60937-1.3789 0.18972-0.48452 0.369-0.97099 0.51953-1.3418 0.07526-0.1854 0.14375-0.34152 0.19336-0.44141 0.005371-0.010816 0.008089-0.011853 0.013672-0.021485 0.008633-0.004922 0.009992-0.006986 0.019531-0.011718 0.09989-0.04961 0.256-0.1181 0.44141-0.19336 0.37085-0.15057 0.85728-0.32981 1.3418-0.51953 0.48452-0.18972 0.96388-0.38647 1.3789-0.60937 0.20752-0.11145 0.40011-0.22327 0.5957-0.39453 0.1956-0.17126 0.49414-0.44046 0.49414-0.99805s-0.29854-0.82678-0.49414-0.99805c-0.1956-0.17126-0.38819-0.28308-0.5957-0.39453-0.41503-0.22291-0.89439-0.41966-1.3789-0.60938s-0.97099-0.369-1.3418-0.51953c-0.1854-0.075264-0.34152-0.14375-0.44141-0.19336-0.010113-0.0050225-0.010444-0.0084492-0.019531-0.013672-0.005219-0.0090876-0.008655-0.0094186-0.013672-0.019531-0.049653-0.099884-0.1181-0.256-0.19336-0.44141-0.15053-0.37081-0.32981-0.85728-0.51953-1.3418-0.18972-0.48452-0.38647-0.96387-0.60937-1.3789-0.11145-0.20752-0.22327-0.40011-0.39453-0.5957-0.17126-0.1956-0.44046-0.49414-0.99805-0.49414zm0 1c0.61714 0 1.5687 3.5579 2.0059 3.9941 0.43629 0.43714 3.9941 1.3887 3.9941 2.0059s-3.5579 1.5687-3.9941 2.0059c-0.43714 0.43629-1.3887 3.9941-2.0059 3.9941s-1.5687-3.5579-2.0059-3.9941c-0.43629-0.43714-3.9941-1.3887-3.9941-2.0059s3.5579-1.5687 3.9941-2.0059c0.43714-0.43629 1.3887-3.9941 2.0059-3.9941z" color="#000000" color-rendering="auto" dominant-baseline="auto" fill="#dedede" image-rendering="auto" shape-rendering="auto" solid-color="#000000" style="font-feature-settings:normal;font-variant-alternates:normal;font-variant-caps:normal;font-variant-ligatures:normal;font-variant-numeric:normal;font-variant-position:normal;isolation:auto;mix-blend-mode:normal;shape-padding:0;text-decoration-color:#000000;text-decoration-line:none;text-decoration-style:solid;text-indent:0;text-orientation:mixed;text-transform:none;white-space:normal"/>
</svg>
